build/flags/Grenada.svg

<svg xmlns="http://www.w3.org/2000/svg" fill="none" viewBox="0 0 28 28" focusable="false"><mask id="Grenada_svg__c" width="22.667" height="14.667" x="2.667" y="6.667" maskUnits="userSpaceOnUse"><g filter="url(#Grenada_svg__a)"><path fill="#079B77" d="M2.667 6.667H25.334000000000003V21.334H2.667z"/><path stroke="#969696" stroke-opacity="0" stroke-width="0" d="M2.667 6.667H25.334000000000003V21.334H2.667z"/></g></mask><defs><linearGradient id="Grenada_svg__d" x1="10.667" x2="10.667" y1="10.667" y2="17.333" gradientUnits="userSpaceOnUse"><stop offset="0" stop-color="#E21C30"/><stop offset="1" stop-color="#CE1225"/></linearGradient><filter id="Grenada_svg__a"><feColorMatrix values="0 0 0 0 1 0 0 0 0 1 0 0 0 0 1 0 0 0 1 0"/></filter></defs><mask id="Grenada_svg__b" width="28" height="20" x="0" y="4" maskUnits="userSpaceOnUse"><g filter="url(#Grenada_svg__a)"><rect width="28" height="20" y="4" fill="#FFF" rx="3"/><rect width="28" height="20" y="4" stroke="#969696" stroke-opacity="0" stroke-width="0" rx="3"/></g></mask><path fill="none" d="M0 0H28V28H0z"/><rect width="28" height="20" y="4" fill="#FFF" rx="3"/><rect width="28" height="20" y="4" rx="3"/><g mask="url(#Grenada_svg__b)"><path fill="#E42235" d="M0 4H28V24H0z"/><path d="M0 4H28V24H0z"/><path fill="#079B77" d="M2.667 6.667H25.334000000000003V21.334H2.667z"/><path d="M2.667 6.667H25.334000000000003V21.334H2.667z"/><g mask="url(#Grenada_svg__c)"><path fill="#FFD938" fill-rule="evenodd" d="M4.39316 14.1318C4.77066 14.7359 5.31264 15.1347 5.81744 15.237C6.09535 15.2934 5.58652 14.0189 5.80825 13.8803C5.99745 13.7621 6.90771 14.822 6.98741 14.6008C7.17081 14.0921 7.06262 13.3716 6.65462 12.7187C6.06929 11.7819 6.04644 12.4002 4.46405 11.7291C4.6295 12.6888 3.80782 13.1951 4.39316 14.1318Z"/><path d="M5.81744 15.237C6.09535 15.2934 5.58652 14.0189 5.80825 13.8803C5.99745 13.7621 6.90771 14.822 6.98741 14.6008C7.17081 14.0921 7.06262 13.3716 6.65462 12.7187C6.06929 11.7819 6.04644 12.4002 4.46405 11.7291C4.6295 12.6888 3.80782 13.1951 4.39316 14.1318C4.77066 14.7359 5.31264 15.1347 5.81744 15.237Z"/><path fill="#FFD93B" fill-rule="evenodd" d="M14 14L25.3334 6.66663L2.66669 6.66663L14 14ZM14 14L2.66669 21.3333L25.3334 21.3333L14 14Z"/><path d="M14 14L25.3334 6.66663L2.66669 6.66663L14 14ZM14 14L2.66669 21.3333L25.3334 21.3333L14 14Z"/><path fill="url(#Grenada_svg__d)" fill-rule="evenodd" d="M14 17.3333C15.841 17.3333 17.3334 15.8409 17.3334 14C17.3334 12.159 15.841 10.6666 14 10.6666C12.1591 10.6666 10.6667 12.159 10.6667 14C10.6667 15.8409 12.1591 17.3333 14 17.3333Z"/><path d="M17.3334 14C17.3334 12.159 15.841 10.6666 14 10.6666C12.1591 10.6666 10.6667 12.159 10.6667 14C10.6667 15.8409 12.1591 17.3333 14 17.3333C15.841 17.3333 17.3334 15.8409 17.3334 14Z"/><path fill="#FFD938" fill-rule="evenodd" d="M14 15.0284L12.4326 16.1574L13.0219 14.3178L11.4638 13.1759L13.3955 13.168L14 11.3333L14.6045 13.168L16.5361 13.1759L14.978 14.3178L15.5674 16.1574L14 15.0284Z"/><path d="M12.4326 16.1574L13.0219 14.3178L11.4638 13.1759L13.3955 13.168L14 11.3333L14.6045 13.168L16.5361 13.1759L14.978 14.3178L15.5674 16.1574L14 15.0284L12.4326 16.1574Z"/></g></g></svg>

<svg xmlns="http://www.w3.org/2000/svg" fill="none" viewBox="0 0 28 28" focusable="false"><defs><linearGradient id="Grenada_svg__d" x1="10.667" x2="10.667" y1="10.667" y2="17.333" gradientUnits="userSpaceOnUse"><stop stop-color="#E21C30"/><stop offset="1" stop-color="#CE1225"/></linearGradient></defs><path fill="none" d="M0 0h28v28H0z"/><rect width="28" height="20" y="4" fill="#FFF" rx="3"/><rect width="28" height="20" y="4" rx="3"/><mask id="Grenada_svg__a" width="28" height="20" x="0" y="4" mask-type="alpha" maskUnits="userSpaceOnUse"><rect width="28" height="20" y="4" fill="#FFF" rx="3"/><rect width="28" height="20" y="4" stroke="#979797" stroke-opacity="0" stroke-width="0" rx="3"/></mask><g mask="url(#Grenada_svg__a)"><path fill="#E42235" d="M0 4h28v20H0z"/><path d="M0 4h28v20H0z"/></g><g mask="url(#Grenada_svg__a)"><path fill="#079B77" d="M2.667 6.667h22.667v14.667H2.667z"/><path d="M2.667 6.667h22.667v14.667H2.667z"/><mask id="Grenada_svg__b" width="22.667" height="14.667" x="2.667" y="6.667" mask-type="alpha" maskUnits="userSpaceOnUse"><path fill="#079B77" d="M2.667 6.667h22.667v14.667H2.667z"/><path stroke="#979797" stroke-opacity="0" stroke-width="0" d="M2.667 6.667h22.667v14.667H2.667z"/></mask><g mask="url(#Grenada_svg__b)"><path fill="#FFD938" fill-rule="evenodd" d="M4.39 14.13c.38.6.92 1 1.42 1.1.28.06-.23-1.22-.01-1.35.19-.12 1.1.94 1.18.72.19-.51.08-1.23-.33-1.89-.59-.93-.61-.31-2.19-.99.16.96-.66 1.47-.07 2.41"/><path d="M5.81 15.23c.28.06-.23-1.22-.01-1.35.19-.12 1.1.94 1.18.72.19-.51.08-1.23-.33-1.89-.59-.93-.61-.31-2.19-.99.16.96-.66 1.47-.07 2.41.38.6.92 1 1.42 1.1"/></g><g mask="url(#Grenada_svg__b)"><mask id="Grenada_svg__c" fill="#fff"><path fill-rule="evenodd" d="m14 14 11.333-7.333H2.667zm0 0L2.667 21.333h22.666z" clip-rule="evenodd"/></mask><path fill="#FFD93B" fill-rule="evenodd" d="m14 14 11.333-7.333H2.667zm0 0L2.667 21.333h22.666z" clip-rule="evenodd" mask="url(#Grenada_svg__c)"/></g><g mask="url(#Grenada_svg__b)"><path fill="url(#Grenada_svg__d)" fill-rule="evenodd" d="M14 17.33c1.84 0 3.33-1.49 3.33-3.34 0-1.84-1.49-3.33-3.33-3.33-1.85 0-3.34 1.49-3.34 3.33 0 1.85 1.49 3.34 3.34 3.34"/><path d="M17.33 13.99c0-1.84-1.49-3.33-3.33-3.33-1.85 0-3.34 1.49-3.34 3.33 0 1.85 1.49 3.34 3.34 3.34 1.84 0 3.33-1.49 3.33-3.34"/></g><g mask="url(#Grenada_svg__b)"><path fill="#FFD938" fill-rule="evenodd" d="m14 15.02-1.57 1.13.59-1.84-1.56-1.14 1.93-.01.61-1.83.6 1.83 1.93.01-1.56 1.14.59 1.84z"/><path d="m12.43 16.15.59-1.84-1.56-1.14 1.93-.01.61-1.83.6 1.83 1.93.01-1.56 1.14.59 1.84L14 15.02z"/></g></g></svg>
